X:133 
T:Miss Geraldine's Jig*
F:file ID: cre.5/133miss_g
B:CRE5.021 (gan ainm)
M:6/8
Q:160
R:jig
K:D % source key A
A|ded BAF|dAF DFA|ded edf|afd edB|
ded edB|dAF DFA|ded ede|fdd d2:|
|:f|afd baf|adf edc|ABd ede|faf efg|
afd baf|adf edB|ABd ede|1fdd d2:|\
[2 fdd d3-|d6||


%%%

